resources/SVG/cooking-osrs.svg

<?xml version="1.0" encoding="UTF-8" standalone="no"?>
<!-- Generated by IcoMoon.io -->

<svg
   version="1.1"
   width="100px"
   height="100px"
   viewBox="0 0 32 32"
   id="svg6"
   sodipodi:docname="cooking-osrs.svg"
   inkscape:version="1.1 (c68e22c387, 2021-05-23)"
   xmlns:inkscape="http://www.inkscape.org/namespaces/inkscape"
   xmlns:sodipodi="http://sodipodi.sourceforge.net/DTD/sodipodi-0.dtd"
   xmlns="http://www.w3.org/2000/svg"
   xmlns:svg="http://www.w3.org/2000/svg">
  <defs
     id="defs10" />
  <sodipodi:namedview
     id="namedview8"
     pagecolor="#ffffff"
     bordercolor="#666666"
     borderopacity="1.0"
     inkscape:pageshadow="2"
     inkscape:pageopacity="0.0"
     inkscape:pagecheckerboard="0"
     showgrid="false"
     inkscape:zoom="26"
     inkscape:cx="15.980769"
     inkscape:cy="10.365385"
     inkscape:window-width="1920"
     inkscape:window-height="1017"
     inkscape:window-x="1912"
     inkscape:window-y="-8"
     inkscape:window-maximized="1"
     inkscape:current-layer="svg6" />
  <title
     id="title2">cooking-osrs</title>
  <path
     d="M6.984 0.671c-0.355 0.355-0.604 1.208-0.604 1.883 0 0.995 0.32 1.527 1.421 2.629 1.172 1.137 1.421 1.634 1.421 2.735v1.35h-2.664c-2.415 0-2.7 0.071-3.197 0.853-0.426 0.675-0.497 1.030-0.213 1.563 0.568 1.101 2.522 2.557 3.623 2.806 1.883 0.355 0.959 2.451-2.096 4.866-2.948 2.309-3.552 3.73-2.877 6.465 0.355 1.35 0.924 2.238 2.629 3.943l2.167 2.238h9.2c10.23 0 9.981 0.035 12.29-2.522 1.421-1.563 2.025-2.771 2.309-4.511 0.32-1.989-0.604-3.694-3.019-5.577-3.161-2.486-4.085-4.547-2.167-4.902 1.243-0.284 3.907-2.593 3.907-3.445 0-1.101-1.172-1.776-3.126-1.776h-1.847v-1.527c0-1.208 0.142-1.563 0.817-1.847 1.137-0.497 1.279-2.7 0.249-3.73-0.604-0.604-1.101-0.71-2.593-0.639-1.812 0.107-1.847 0.142-1.954 1.243-0.142 1.314-0.781 1.598-0.781 0.355 0-1.35-0.675-1.669-3.445-1.669-1.954 0-2.842-0.178-3.73-0.71-1.563-0.959-4.902-0.995-5.719-0.071zM11.992 1.879c0.284 0.284 0.426 1.669 0.426 3.907 0 3.481 0 3.481-0.888 3.481-0.817 0-0.888-0.142-0.888-1.527 0-1.314-0.213-1.705-1.421-2.913-0.995-0.959-1.421-1.705-1.421-2.38 0-0.959 0.071-0.995 1.883-0.995 1.030 0 2.060 0.178 2.309 0.426zM27.692 11.007c0 0.604-1.883 1.847-3.445 2.273-1.314 0.355-1.527 0.533-1.527 1.35 0 1.776 0.746 2.948 3.588 5.683 2.238 2.131 2.806 2.877 2.806 3.694 0 1.492-1.279 3.872-2.877 5.293l-1.385 1.279h-17.902l-1.669-1.741c-1.776-1.847-2.7-4.049-2.309-5.541 0.107-0.462 1.35-1.812 2.735-3.055 2.593-2.309 3.517-3.765 3.517-5.577 0-0.853-0.178-1.030-1.527-1.385-1.563-0.426-3.445-1.669-3.445-2.273 0-0.178 4.76-0.32 11.722-0.32s11.722 0.142 11.722 0.32z"
     id="path4" />
  <rect
     style="fill:#ffffff;fill-rule:evenodd;stroke:#ffffff;stroke-width:1.04067;stroke-miterlimit:4;stroke-dasharray:none;stroke-opacity:1"
     id="rect849"
     height="5.5734801"
     x="14.101659"
     y="3.132555"
     ry="0.0095534595"
     width="0.79630846" />
  <rect
     style="fill:#ffffff;fill-rule:evenodd;stroke:#ffffff;stroke-width:1.10922;stroke-miterlimit:4;stroke-dasharray:none;stroke-opacity:1"
     id="rect849-1"
     width="1.3819804"
     height="5.3126202"
     x="17.078239"
     y="3.3436899"
     ry="0.0094456282" />
  <rect
     style="fill:#ffffff;fill-rule:evenodd;stroke:#ffffff;stroke-width:1.17;stroke-miterlimit:4;stroke-dasharray:none;stroke-opacity:1"
     id="rect1387"
     width="1.7692305"
     height="3.3846152"
     x="20.653847"
     y="5.2692308"
     ry="0.0106625" />
  <rect
     style="fill:#ffffff;fill-rule:evenodd;stroke:#ffffff;stroke-width:1.17;stroke-miterlimit:4;stroke-dasharray:none;stroke-opacity:1"
     id="rect1491"
     width="2.0000002"
     height="1.7692304"
     x="22.076923"
     y="3"
     ry="0.71153855" />
  <rect
     style="fill:#ffffff;fill-rule:evenodd;stroke:#ffffff;stroke-width:0.652766;stroke-miterlimit:4;stroke-dasharray:none;stroke-opacity:1"
     id="rect1998"
     width="2.2363627"
     height="2.1730995"
     x="19.192848"
     y="-11.192363"
     ry="0.27542621"
     transform="matrix(0.77231185,0.63524358,-0.63524959,0.77230691,0,0)" />
  <path
     style="fill:#7a6b09;fill-rule:evenodd;stroke:#7a6b09;stroke-width:0.045;stroke-miterlimit:4;stroke-dasharray:none;stroke-opacity:1;fill-opacity:1"
     d="M 5.9390297,29.535029 C 4.4838844,28.011319 4.047223,27.439354 3.5191923,26.365385 3.0710306,25.453862 2.8841082,24.766007 2.8852162,24.03242 2.8863096,23.308482 2.9893325,23.07 3.6204473,22.330483 4.1235919,21.740916 4.793766,21.071716 5.9615385,19.992793 8.0520412,18.061347 8.8770296,16.899681 9.1346788,15.524695 9.2081327,15.132697 9.2217781,14.349023 9.15902,14.126749 9.0586642,13.771311 8.7843523,13.600852 7.9038462,13.346778 7.2123004,13.147229 6.7513938,12.968485 6.1958823,12.684414 5.5933768,12.376311 5.0439949,12.004376 4.685516,11.661888 4.3911296,11.380633 4.1875223,11.066324 4.255608,10.998238 c 0.085942,-0.08594 1.1544913,-0.161654 3.2828535,-0.232607 1.892675,-0.0631 12.1449515,-0.08963 14.7884615,-0.03828 3.093885,0.06011 4.751587,0.129604 5.240385,0.219704 0.163437,0.03013 0.16502,0.133181 0.0057,0.373652 -0.255449,0.385658 -1.003814,0.942556 -1.838394,1.368047 -0.571005,0.291113 -0.910969,0.425178 -1.628658,0.642259 -1.284939,0.388659 -1.409527,0.528887 -1.363166,1.534287 0.05638,1.222701 0.455332,2.065962 1.622365,3.429182 0.232587,0.271687 1.195192,1.264169 2.139121,2.205515 1.811506,1.806548 2.141746,2.181965 2.428402,2.760607 l 0.163438,0.329913 -0.0025,0.483586 c -0.0026,0.519633 -0.05426,0.778726 -0.289291,1.452049 -0.292733,0.83864 -1.013983,2.06516 -1.684673,2.864867 -0.290232,0.346063 -0.876488,0.921021 -1.850499,1.814836 l -0.403846,0.370596 -8.965672,2.31e-4 -8.965671,2.38e-4 z"
     id="path2153" />
  <path
     style="fill:#ffffff;fill-rule:evenodd;stroke:#000000;stroke-width:0;stroke-miterlimit:4;stroke-dasharray:none"
     d="M 9.1516677,1.410607 C 8.7465175,1.4415746 8.2757363,1.3611349 7.9274339,1.6153846 7.6746221,1.898287 7.7766571,2.322026 7.7713562,2.6676057 c 0.091041,0.8286734 0.7225105,1.451822 1.2502033,2.0422801 0.4897447,0.5536496 1.0964965,1.0429146 1.3853665,1.742638 0.258368,0.8039235 0.106382,1.6692412 0.280724,2.4903097 0.09492,0.3738377 0.546891,0.3839803 0.858241,0.36707 0.236325,-0.027605 0.544489,0.081815 0.674361,-0.182725 0.242351,-0.3438689 0.192251,-0.8007381 0.233023,-1.1996531 0.01914,-1.5413492 0.02723,-3.0856579 -0.05906,-4.6250174 C 12.317558,2.8170729 12.319723,2.2783665 12.039814,1.8556941 11.612157,1.5232521 11.031841,1.4945671 10.512169,1.440655 10.059451,1.4088573 9.6052873,1.4072029 9.1516677,1.410607 Z"
     id="path902" />
</svg>

<svg xmlns="http://www.w3.org/2000/svg" width="100" height="100" viewBox="0 0 32 32"><path d="M6.984.671c-.355.355-.604 1.208-.604 1.883 0 .995.32 1.527 1.421 2.629C8.973 6.32 9.222 6.817 9.222 7.918v1.35H6.558c-2.415 0-2.7.071-3.197.853-.426.675-.497 1.03-.213 1.563.568 1.101 2.522 2.557 3.623 2.806 1.883.355.959 2.451-2.096 4.866-2.948 2.309-3.552 3.73-2.877 6.465.355 1.35.924 2.238 2.629 3.943l2.167 2.238h9.2c10.23 0 9.981.035 12.29-2.522 1.421-1.563 2.025-2.771 2.309-4.511.32-1.989-.604-3.694-3.019-5.577-3.161-2.486-4.085-4.547-2.167-4.902 1.243-.284 3.907-2.593 3.907-3.445 0-1.101-1.172-1.776-3.126-1.776h-1.847V7.742c0-1.208.142-1.563.817-1.847 1.137-.497 1.279-2.7.249-3.73-.604-.604-1.101-.71-2.593-.639-1.812.107-1.847.142-1.954 1.243-.142 1.314-.781 1.598-.781.355 0-1.35-.675-1.669-3.445-1.669-1.954 0-2.842-.178-3.73-.71C11.141-.214 7.802-.25 6.985.674zm5.008 1.208c.284.284.426 1.669.426 3.907 0 3.481 0 3.481-.888 3.481-.817 0-.888-.142-.888-1.527 0-1.314-.213-1.705-1.421-2.913C8.226 3.868 7.8 3.122 7.8 2.447c0-.959.071-.995 1.883-.995 1.03 0 2.06.178 2.309.426zm15.7 9.128c0 .604-1.883 1.847-3.445 2.273-1.314.355-1.527.533-1.527 1.35 0 1.776.746 2.948 3.588 5.683 2.238 2.131 2.806 2.877 2.806 3.694 0 1.492-1.279 3.872-2.877 5.293l-1.385 1.279H6.95l-1.669-1.741c-1.776-1.847-2.7-4.049-2.309-5.541.107-.462 1.35-1.812 2.735-3.055 2.593-2.309 3.517-3.765 3.517-5.577 0-.853-.178-1.03-1.527-1.385-1.563-.426-3.445-1.669-3.445-2.273 0-.178 4.76-.32 11.722-.32s11.722.142 11.722.32z"/><rect width=".796" height="5.573" x="14.102" y="3.133" ry=".01" style="fill:#fff;fill-rule:evenodd;stroke:#fff;stroke-width:1.04067;stroke-miterlimit:4;stroke-dasharray:none;stroke-opacity:1"/><rect width="1.382" height="5.313" x="17.078" y="3.344" ry=".009" style="fill:#fff;fill-rule:evenodd;stroke:#fff;stroke-width:1.10922;stroke-miterlimit:4;stroke-dasharray:none;stroke-opacity:1"/><rect width="1.769" height="3.385" x="20.654" y="5.269" ry=".011" style="fill:#fff;fill-rule:evenodd;stroke:#fff;stroke-width:1.17;stroke-miterlimit:4;stroke-dasharray:none;stroke-opacity:1"/><rect width="2" height="1.769" x="22.077" y="3" ry=".712" style="fill:#fff;fill-rule:evenodd;stroke:#fff;stroke-width:1.17;stroke-miterlimit:4;stroke-dasharray:none;stroke-opacity:1"/><rect width="2.236" height="2.173" x="19.193" y="-11.192" ry=".275" style="fill:#fff;fill-rule:evenodd;stroke:#fff;stroke-width:.652766;stroke-miterlimit:4;stroke-dasharray:none;stroke-opacity:1" transform="rotate(39.438)"/><path d="M5.939 29.535c-1.455-1.524-1.892-2.096-2.42-3.17-.448-.911-.635-1.599-.634-2.333.001-.724.104-.962.735-1.702.504-.59 1.174-1.258 2.342-2.337 2.09-1.932 2.915-3.093 3.173-4.468.073-.392.087-1.176.024-1.398-.1-.356-.375-.526-1.255-.78a8.75 8.75 0 0 1-1.708-.663c-.603-.308-1.152-.68-1.51-1.022-.295-.281-.498-.596-.43-.664.086-.086 1.154-.161 3.282-.232 1.893-.063 12.145-.09 14.789-.039 3.094.06 4.752.13 5.24.22.164.03.165.133.006.374-.255.385-1.004.942-1.838 1.368-.571.29-.911.425-1.629.642-1.285.389-1.41.529-1.363 1.534.056 1.223.455 2.066 1.622 3.43.233.271 1.195 1.264 2.14 2.205 1.81 1.807 2.141 2.182 2.428 2.76l.163.33-.002.484c-.003.52-.055.779-.29 1.452-.292.839-1.014 2.065-1.684 2.865-.29.346-.877.921-1.85 1.815l-.405.37H6.934z" style="fill:#7a6b09;fill-rule:evenodd;stroke:#7a6b09;stroke-width:.045;stroke-miterlimit:4;stroke-dasharray:none;stroke-opacity:1;fill-opacity:1"/><path d="M9.152 1.41c-.405.032-.876-.049-1.225.205-.252.283-.15.707-.156 1.053.091.828.723 1.451 1.25 2.042.49.554 1.097 1.043 1.386 1.743.258.803.106 1.669.28 2.49.096.374.548.384.859.367.236-.028.544.082.674-.183.243-.344.193-.8.233-1.2.02-1.54.028-3.085-.059-4.624-.076-.486-.074-1.025-.354-1.447-.428-.333-1.008-.361-1.528-.415a17.537 17.537 0 0 0-1.36-.03Z" style="fill:#fff;fill-rule:evenodd;stroke:#000;stroke-width:0;stroke-miterlimit:4;stroke-dasharray:none"/></svg>
